X:1
T:Shorter, 10.10.10 D
T:Shorter, 10.10.10 D
T:Levi Jenkins Coppin, 1898
T:Public Domain Courtesy of the Cyber Hymnal™
C:Levi Jenkins Coppin, 1898
Z:Public Domain
Z:Courtesy of the Cyber Hymnal™
%%score ( 1 2 ) 3
L:1/8
Q:1/4=98
M:4/4
K:D
V:1 treble 
V:2 treble 
V:3 bass 
V:1
 [DF]2 [DF][DF] [DF]3 [DF] | [DF][CE][DF][EG] [FA]4 | [FA]2 [FA]>[FA] [FA]3 [FA] | %3
 [GB][FA][DF]D [CE]4 | [DF]2 [DF][DF] [DF]3 [DF] | [DF][CE][DF][EG] [FA]4 | %6
 [GB]2 [EG][GB] [FA]2 [DF]2 | [FA][EG][DF][CE] D4 | [CE]2 [CE]>[DF] [EG][EG] z2 | %9
 [DF][CE][DF][EG] [FA]4 | [Fd]2 [Ac][GB] [GB][FA][DF]D | [DF]2 [CE]2 [A,D]4 |] %12
V:2
 x8 | x8 | x8 | x3 D x4 | x8 | x8 | x8 | x4 D4 | x8 | x8 | x7 D | x8 |] %12
V:3
 [D,A,]2 [D,A,][D,A,] [D,A,]3 [D,A,] | [D,A,][A,,A,][D,A,][D,A,] [D,D]4 | %2
 [D,D]2 [D,D]>[D,D] [D,D]3 [D,D] | [D,D][D,A,][D,A,][D,F,] [A,,A,]4 | %4
 [D,A,]2 [D,A,][D,A,] [D,A,]3 [D,A,] | [D,A,][A,,A,][D,A,][D,A,] [D,A,]4 | %6
 [G,,G,]2 [G,,G,][G,,G,] [D,F,]2 [D,A,]2 | [A,,A,][A,,A,][A,,A,][A,,G,] [D,F,]4 | %8
 [A,,A,]2 [A,,A,]>[A,,A,] [A,,A,][A,,A,] z2 | [D,A,][D,A,][D,A,][D,A,] [D,A,]4 | %10
 [D,A,]2 [D,A,][D,A,] [D,A,][D,A,][D,A,][G,,B,] | [A,,A,]2 [A,,G,]2 [D,F,]4 |] %12

